img/weibo.svg

<?xml version="1.0" encoding="utf-8"?>
<!-- Generator: Adobe Illustrator 23.0.0, SVG Export Plug-In . SVG Version: 6.00 Build 0)  -->
<svg version="1.1" id="图层_1" xmlns="http://www.w3.org/2000/svg" xmlns:xlink="http://www.w3.org/1999/xlink" x="0px" y="0px"
	 viewBox="0 0 60 60" style="enable-background:new 0 0 60 60;" xml:space="preserve">
<style type="text/css">
	.st0{fill-rule:evenodd;clip-rule:evenodd;fill:#FFFFFF;}
	.st1{fill:#E6172D;}
</style>
<title>weibo</title>
<desc>Created with Sketch.</desc>
<path class="st0" d="M30,60L30,60C13.4,60,0,46.6,0,30v0C0,13.4,13.4,0,30,0h0c16.6,0,30,13.4,30,30v0C60,46.6,46.6,60,30,60z"/>
<g id="Page-1">
	<g id="weibo">
		<path id="Shape" class="st1" d="M30,60C13.4,60,0,46.6,0,30S13.4,0,30,0s30,13.4,30,30S46.6,60,30,60z M40.3,27.9
			c-0.5-0.2-0.9-0.3-0.6-1c0.6-1.5,0.7-2.9,0-3.8c-1.2-1.8-4.6-1.7-8.4,0c0,0-1.2,0.5-0.9-0.4c0.6-1.9,0.5-3.6-0.4-4.5
			c-2.1-2.1-7.6,0.1-12.4,4.9c-3.6,3.6-5.6,7.5-5.6,10.8c0,6.4,8,10.2,15.8,10.2c10.2,0,17.1-6.1,17.1-10.9
			C44.9,30.3,42.5,28.6,40.3,27.9L40.3,27.9z M27.8,41.8c-6.2,0.6-11.6-2.2-12-6.4c-0.4-4.2,4.3-8.1,10.6-8.7
			c6.2-0.6,11.6,2.2,12,6.4C38.8,37.3,34.1,41.2,27.8,41.8L27.8,41.8z M28.2,30.2c-3-0.8-6.4,0.7-7.6,3.5c-1.3,2.8,0,5.9,3,7
			c3.1,1.1,6.8-0.6,8.1-3.6C32.8,34.1,31.3,31.1,28.2,30.2L28.2,30.2z M27.9,34.7c-0.2,0.4-0.7,0.6-1.1,0.4c-0.4-0.2-0.5-0.6-0.3-1
			c0.2-0.4,0.7-0.6,1.1-0.4C28,33.9,28.1,34.3,27.9,34.7z M25.9,37.4c-0.6,1-1.9,1.5-2.9,1c-1-0.5-1.2-1.6-0.6-2.6
			c0.6-1,1.9-1.4,2.8-1C26.2,35.2,26.5,36.4,25.9,37.4L25.9,37.4z M47.2,16.6c-2.4-2.7-5.8-3.8-9.1-3.1h0c-0.7,0.2-1.2,0.9-1.1,1.7
			c0.2,0.8,0.9,1.3,1.6,1.1c2.3-0.5,4.8,0.2,6.4,2.2c1.7,1.9,2.1,4.6,1.4,6.9v0c-0.2,0.8,0.2,1.6,0.9,1.8c0.7,0.2,1.5-0.2,1.7-0.9v0
			C50.2,23.1,49.6,19.3,47.2,16.6L47.2,16.6z M43.7,20.6c-1.2-1.3-3-1.8-4.7-1.4c-0.7,0.1-1.1,0.8-1,1.4c0.1,0.6,0.8,1.1,1.5,0.9v0
			c0.8-0.2,1.7,0.1,2.3,0.7c0.6,0.6,0.8,1.5,0.5,2.3h0c-0.2,0.6,0.1,1.3,0.8,1.5c0.7,0.2,1.4-0.1,1.6-0.8
			C45.3,23.6,45,21.9,43.7,20.6L43.7,20.6z"/>
	</g>
</g>
</svg>

<svg width="60" height="60" viewBox="0 0 60 60" fill="none" xmlns="http://www.w3.org/2000/svg">
<path fill-rule="evenodd" clip-rule="evenodd" d="M30 53.5625C16.9621 53.5625 6.4375 43.0379 6.4375 30C6.4375 16.9621 16.9621 6.4375 30 6.4375C43.0379 6.4375 53.5625 16.9621 53.5625 30C53.5625 43.0379 43.0379 53.5625 30 53.5625Z" fill="white"/>
<path d="M30 60C13.4 60 0 46.6 0 30C0 13.4 13.4 0 30 0C46.6 0 60 13.4 60 30C60 46.6 46.6 60 30 60ZM40.3 27.9C39.8 27.7 39.4 27.6 39.7 26.9C40.3 25.4 40.4 24 39.7 23.1C38.5 21.3 35.1 21.4 31.3 23.1C31.3 23.1 30.1 23.6 30.4 22.7C31 20.8 30.9 19.1 30 18.2C27.9 16.1 22.4 18.3 17.6 23.1C14 26.7 12 30.6 12 33.9C12 40.3 20 44.1 27.8 44.1C38 44.1 44.9 38 44.9 33.2C44.9 30.3 42.5 28.6 40.3 27.9ZM27.8 41.8C21.6 42.4 16.2 39.6 15.8 35.4C15.4 31.2 20.1 27.3 26.4 26.7C32.6 26.1 38 28.9 38.4 33.1C38.8 37.3 34.1 41.2 27.8 41.8ZM28.2 30.2C25.2 29.4 21.8 30.9 20.6 33.7C19.3 36.5 20.6 39.6 23.6 40.7C26.7 41.8 30.4 40.1 31.7 37.1C32.8 34.1 31.3 31.1 28.2 30.2ZM27.9 34.7C27.7 35.1 27.2 35.3 26.8 35.1C26.4 34.9 26.3 34.5 26.5 34.1C26.7 33.7 27.2 33.5 27.6 33.7C28 33.9 28.1 34.3 27.9 34.7ZM25.9 37.4C25.3 38.4 24 38.9 23 38.4C22 37.9 21.8 36.8 22.4 35.8C23 34.8 24.3 34.4 25.2 34.8C26.2 35.2 26.5 36.4 25.9 37.4ZM47.2 16.6C44.8 13.9 41.4 12.8 38.1 13.5C37.4 13.7 36.9 14.4 37 15.2C37.2 16 37.9 16.5 38.6 16.3C40.9 15.8 43.4 16.5 45 18.5C46.7 20.4 47.1 23.1 46.4 25.4C46.2 26.2 46.6 27 47.3 27.2C48 27.4 48.8 27 49 26.3C50.2 23.1 49.6 19.3 47.2 16.6ZM43.7 20.6C42.5 19.3 40.7 18.8 39 19.2C38.3 19.3 37.9 20 38 20.6C38.1 21.2 38.8 21.7 39.5 21.5C40.3 21.3 41.2 21.6 41.8 22.2C42.4 22.8 42.6 23.7 42.3 24.5C42.1 25.1 42.4 25.8 43.1 26C43.8 26.2 44.5 25.9 44.7 25.2C45.3 23.6 45 21.9 43.7 20.6Z" fill="#E6172D"/>
</svg>
